X: 85
T: The Rights of Man
B: begged borrowed and stolen
B: ralph
B: steve tunes
M:4/4
Q: 1/4=140
K:Em
V:1 
GA|:"Em"(3BcB (3ABA (3GAG (3FGF|EFGA B2 e-f|gfed edcB|"Am"cBAG "B7"A2 GA|
"Em"(3BcB (3ABA (3GAG (3FGF|EFGA B2 e-f|gfed "B7"Bg (3fgf|1"Em"e2E2 E2 GA:|2"Em"e2E2 E2 ga||
|:"Em"babg efga|babg e2fe|"D"d^cde fefg|afdf a2 g-f|
"Em"eBeg "D"fdfa|"Em"gfga bgef|gfed "B7"Bg (3fgf|1 "Em"e2E2E2 ga:|2 "Em"e2E2 E4 ||
% abcbook-tune_id 627e2b1fd0f1475811b20941


% abcbook-boost 0
% abcbook-tablature 
% abcbook-transpose 
% abcbook-lastupdated 1665482528190
% abcbook-soundfonts 
% abcbook-repeats 3
% Titles One title
% Transcriptions Only 1 transcription
% Movement Has lots of stepwise movement
% Movement Has some stepwise movement
% Mode minor
% Key E
% Time_signature 4/4
% Has_accompaniment_chords Has chords

